icons/arrow-left-24.svg

<svg xmlns="http://www.w3.org/2000/svg" width="24" height="24" viewBox="0 0 24 24"><path d="M10.78 19.03a.75.75 0 01-1.06 0l-6.25-6.25a.75.75 0 010-1.06l6.25-6.25a.749.749 0 011.275.326.749.749 0 01-.215.734L5.81 11.5h14.44a.75.75 0 010 1.5H5.81l4.97 4.97a.75.75 0 010 1.06z"/></svg>

<svg xmlns="http://www.w3.org/2000/svg" width="24" height="24" viewBox="0 0 24 24">
  <defs/>
  <path d="M10.78,19.03 C10.487,19.322 10.013,19.322 9.72,19.03 L3.47,12.78 C3.178,12.487 3.178,12.013 3.47,11.72 L9.72,5.47 C9.907,5.269 10.189,5.187 10.454,5.255 C10.72,5.322 10.928,5.53 10.995,5.796 C11.063,6.061 10.981,6.343 10.78,6.53 L5.81,11.5 L20.25,11.5 C20.664,11.5 21,11.836 21,12.25 C21,12.664 20.664,13 20.25,13 L5.81,13 L10.78,17.97 C11.072,18.263 11.072,18.737 10.78,19.03 Z"/>
</svg>
